X: 8
T: Missa Ecce ancilla domini / Credo
N: Derived from Duf1003c-Missa_Ecce_ancilla_domini-Credo.krn
C: Guillaume Du Fay
%%abc-version 2.0
%%abcx-abcm2ps-target-version 5.9.1 (29 Sep 2008)
%%abc-creator hum2abc beta
%%abcx-conversion-date 2019/02/16 20:31:46
%%abc-edited-by Alejandro Planchart, Jesse Rodin
%%abc-edited-by Alejandro Planchart
%%abcx-initial-encoding-date 2014/07/25/
%%humdrum-veritas 932629422
%%humdrum-veritas-data 538511686
%%linebreak <none>
%%barnumbers 0
L: 1/4
M: 3/1
Q: 1/2=120
%%staves [1 2 3 4]
V: 1 clef=treble
V: 2 clef=treble-8
V: 3 clef=treble-8
V: 4 clef=bass
K: F
[V:1] G12 | 
[V:2] G6A2=B4 | 
[V:3] z12 | 
[V:4] z12 | 
[V:1] E4F6E2 | 
[V:2] c4d6c2 | 
[V:3] z12 | 
[V:4] z12 | 
[V:1] E4A6G2 | 
[V:2] c8A4 | 
[V:3] z12 | 
[V:4] z12 | 
[V:1] G8E2D2 | 
[V:2] =B4c6=B2 | 
[V:3] z12 | 
[V:4] z12 | 
[V:1] E4D2D4C=B, | 
[V:2] G8G2E2 | 
[V:3] z12 | 
[V:4] z12 | 
[V:1] A,4G,8 | 
[V:2] ^F4G4z4 | 
[V:3] z12 | 
[V:4] z12 | 
[V:1] z12 | 
[V:2] G4A6G2 | 
[V:3] z12 | 
[V:4] z12 | 
[V:1] G4A6G2 | 
[V:2] E4D2F4E2 | 
[V:3] z12 | 
[V:4] z12 | 
[V:1] E4D2F3ED2 | 
[V:2] C4D4F4 | 
[V:3] z12 | 
[V:4] z12 | 
[V:1] C4D3EF4 | 
[V:2] E2A2G2FED4 | 
[V:3] z12 | 
[V:4] z12 | 
[V:1] E2G3FE2D4 | 
[V:2] C4z4=B4 | 
[V:3] z12 | 
[V:4] z12 | 
[V:1] C4z4E4 | 
[V:2] c6c4c2 | 
[V:3] z12 | 
[V:4] z12 | 
[V:1] G6G4G2 | 
[V:2] G8G4 | 
[V:3] z12 | 
[V:4] z12 | 
[V:1] D2E2D2G4^F2 | 
[V:2] F2G4=B2A4 | 
[V:3] z12 | 
[V:4] z12 | 
[V:1] G4z4C4 | 
[V:2] G4C4E3F | 
[V:3] z12 | 
[V:4] z12 | 
[V:1] E3FG2A2G2E2- | 
[V:2] G2A2G2c3=BAG | 
[V:3] z12 | 
[V:4] z12 | 
[V:1] EDFEDCC4=B,2 | 
[V:2] G2F2G2E2D4 | 
[V:3] z12 | 
[V:4] z12 | 
[V:1] C12 | 
[V:2] C8z4 | 
[V:3] z12 | 
[V:4] z12 | 
[V:1] z4G,4G,2=B,2- | 
[V:2] C4C2E4E2 | 
[V:3] z12 | 
[V:4] z12 | 
[V:1] B,2=B,2D4D2A,2- | 
[V:2] G4G2D4D2 | 
[V:3] z12 | 
[V:4] z12 | 
[V:1] A,2A,2C4D2CE- | 
[V:2] F6A2G2c2- | 
[V:3] z12 | 
[V:4] z12 | 
[V:1] EFD2G2G4^F2 | 
[V:2] c2=B2G2=B2A4 | 
[V:3] z12 | 
[V:4] z12 | 
[V:1] G4z4z4 | 
[V:2] G12 | 
[V:3] z12 | 
[V:4] z12 | 
[V:1] E8D4 | 
[V:2] z4c4=B4 | 
[V:3] z12 | 
[V:4] z12 | 
[V:1] E4F6E2 | 
[V:2] c4d6c2 | 
[V:3] z12 | 
[V:4] z12 | 
[V:1] E8D4 | 
[V:2] c8=B4 | 
[V:3] z12 | 
[V:4] z12 | 
[V:1] E6D2C4 | 
[V:2] c4A8 | 
[V:3] z12 | 
[V:4] z12 | 
[V:1] =B,2A,4G,2B,2C2 | 
[V:2] G4F2G4E2 | 
[V:3] z12 | 
[V:4] z12 | 
[V:1] D2E3CC2A,2=B,2 | 
[V:2] F2G2C4D4 | 
[V:3] z12 | 
[V:4] z12 | 
[V:1] C4z4E4 | 
[V:2] C4z4C4 | 
[V:3] z12 | 
[V:4] z12 | 
[V:1] E6F2G4 | 
[V:2] C8C4 | 
[V:3] G12 | 
[V:4] z12 | 
[V:1] G4E6C2 | 
[V:2] E6F2G4 | 
[V:3] c12- | 
[V:4] C,12 | 
[V:1] C4F4F4 | 
[V:2] A12 | 
[V:3] c12 | 
[V:4] F,8F,2G,2 | 
[V:1] E2A4G2E2^F2 | 
[V:2] z4z4c4 | 
[V:3] c12 | 
[V:4] A,8A,4 | 
[V:1] G4G4G2F2 | 
[V:2] d4d4d2d2 | 
[V:3] =B12- | 
[V:4] G,12 | 
[V:1] D2z2G4G4 | 
[V:2] d4e4d4 | 
[V:3] B12 | 
[V:4] G,4E,2F,2G,4 | 
[V:1] E4F2D4^C2 | 
[V:2] c2=B2A4G4 | 
[V:3] z12 | 
[V:4] C,4D,2F,2E,4 | 
[V:1] D4D4C3D | 
[V:2] A4F4E4 | 
[V:3] A12 | 
[V:4] D,8A,,4 | 
[V:1] E4G2F2D4 | 
[V:2] E6D6 | 
[V:3] G12 | 
[V:4] C,4B,,8 | 
[V:1] C4z4C4 | 
[V:2] E6^F4E2 | 
[V:3] A12 | 
[V:4] A,,12 | 
[V:1] D4G6F2 | 
[V:2] G4z4d4 | 
[V:3] =B12 | 
[V:4] G,,8G,,4 | 
[V:1] F8D4 | 
[V:2] d4d2c2A4 | 
[V:3] A12 | 
[V:4] D,6E,2F,4 | 
[V:1] E4F2D2E3F | 
[V:2] =B2c2A2=B2c4 | 
[V:3] G4F4G4- | 
[V:4] E,2C,2D,4C,4 | 
[V:1] G4F4A3G | 
[V:2] =B2c2d4c4 | 
[V:3] G4A8 | 
[V:4] E,4D,2F,4E,2 | 
[V:1] E4z2E2C2G2- | 
[V:2] c12 | 
[V:3] G12 | 
[V:4] C,12 | 
[V:1] GFE2D4C4 | 
[V:2] z12 | 
[V:3] G12 | 
[V:4] C,4=B,,4C,4 | 
[V:1] z12 | 
[V:2] A4G2c4=B2 | 
[V:3] z12 | 
[V:4] z2F,2E,2C,2D,4 | 
[V:1] z12 | 
[V:2] c4c4=B4 | 
[V:3] z12 | 
[V:4] C,2E,4F,2G,4 | 
[V:1] z12 | 
[V:2] c8c4 | 
[V:3] z12 | 
[V:4] C,12 | 
[V:1] z12 | 
[V:2] G4c2d2e4 | 
[V:3] z12 | 
[V:4] z4z4C,4 | 
[V:1] z12 | 
[V:2] d4c6=B2 | 
[V:3] z12 | 
[V:4] G,,4C,2D,2E,4 | 
[V:1] z12 | 
[V:2] =B4A6G2 | 
[V:3] z12 | 
[V:4] D,4C,8 | 
[V:1] z12 | 
[V:2] G4z2^F4E2 | 
[V:3] z12 | 
[V:4] B,,4A,,8 | 
[V:1] z12 | 
[V:2] G4G4G4 | 
[V:3] z12 | 
[V:4] G,,4z2C,4=B,,2 | 
[V:1] z12 | 
[V:2] G4z2c4=B2 | 
[V:3] z12 | 
[V:4] C,3D,E,2F,2D,4 | 
[V:1] z12 | 
[V:2] c2e2d2c3=BAG | 
[V:3] z12 | 
[V:4] C,4G,,2A,,2G,,2C,2- | 
[V:1] z12 | 
[V:2] G2z2A2G2E2F2 | 
[V:3] z12 | 
[V:4] C,2E,2F,2G,4A,2 | 
[V:1] z12 | 
[V:2] D2E2C2z2F3G | 
[V:3] z12 | 
[V:4] F,2G,4C,2D,2B,,2 | 
[V:1] z12 | 
[V:2] A2=B2G2c2d2=B2 | 
[V:3] z12 | 
[V:4] C,2G,,2C,2E,2D,2G,2- | 
[V:1] z12 | 
[V:2] e2d3cc4=B2 | 
[V:3] z12 | 
[V:4] G,2F,2G,2E,2D,4 | 
[V:1] z12 | 
[V:2] c8c2=B2 | 
[V:3] z12 | 
[V:4] C,12 | 
[V:1] D4E2G4F2 | 
[V:2] G12 | 
[V:3] z12 | 
[V:4] z12 | 
[V:1] E4D4C4 | 
[V:2] z4z4A4 | 
[V:3] G8E2F2 | 
[V:4] C,4B,,2G,,2A,,4 | 
[V:1] D4z4G4 | 
[V:2] =B4d4c4 | 
[V:3] G4F2D2E4 | 
[V:4] G,,4B,,4C,4 | 
[V:1] G4G2F2D4 | 
[V:2] =B8G4- | 
[V:3] D8D4 | 
[V:4] G,,6A,,2B,,4 | 
[V:1] C4z4F4 | 
[V:2] G2A4=B4A2 | 
[V:3] E4F8 | 
[V:4] C,4D,8 | 
[V:1] E2G3FG2A4 | 
[V:2] c4c2=B2A4 | 
[V:3] G4A2G2c4 | 
[V:4] C,6E,4F,2 | 
[V:1] D2E2G2^F4E2 | 
[V:2] G4d4d4 | 
[V:3] =B4A8 | 
[V:4] G,4D,8 | 
[V:1] G4G4G4 | 
[V:2] d6=B6 | 
[V:3] G12 | 
[V:4] G,,12 | 
[V:1] E4D2C4=B,A, | 
[V:2] c4z2C2E4 | 
[V:3] G12 | 
[V:4] C,12 | 
[V:1] G,2C2=B,2C2D3C | 
[V:2] E4F2G2A2D2 | 
[V:3] z12 | 
[V:4] C,4D,2E,2D,2F,2- | 
[V:1] D2E3CC4=B,2 | 
[V:2] A2=B2c2G2FF2E | 
[V:3] z12 | 
[V:4] F,2G,2C,2E,2D,4 | 
[V:1] C12- | 
[V:2] G4E2F2G4 | 
[V:3] G12- | 
[V:4] C,12- | 
[V:1] C12 ||  
[V:2] C12 ||  
[V:3] G12 ||  
[V:4] C,12 ||  
[V:1]  [K:F] [K:clef=treble][M:2/1]z8 | 
[V:2]  [K:F] [K:clef=treble-8][M:2/1]A6=B2 | 
[V:3]  [K:F] [K:clef=treble-8][M:2/1]z8 | 
[V:4]  [K:F] [K:clef=bass][M:2/1]z8 | 
[V:1] E6F2 | 
[V:2] c8 | 
[V:3] z8 | 
[V:4] z8 | 
[V:1] G8 | 
[V:2] c4c4- | 
[V:3] z8 | 
[V:4] z8 | 
[V:1] G4G4- | 
[V:2] c4c4 | 
[V:3] z8 | 
[V:4] z8 | 
[V:1] G4G4 | 
[V:2] G8 | 
[V:3] z8 | 
[V:4] z8 | 
[V:1] D8 | 
[V:2] z4G4 | 
[V:3] z8 | 
[V:4] z8 | 
[V:1] z4D4 | 
[V:2] A4=B4 | 
[V:3] z8 | 
[V:4] z8 | 
[V:1] E4F4 | 
[V:2] c6=B2 | 
[V:3] z8 | 
[V:4] z8 | 
[V:1] G6F2 | 
[V:2] G8 | 
[V:3] z8 | 
[V:4] z8 | 
[V:1] D4z4 | 
[V:2] z4G4 | 
[V:3] z8 | 
[V:4] z8 | 
[V:1] D4C2D2 | 
[V:2] F2G2A4- | 
[V:3] z8 | 
[V:4] z8 | 
[V:1] E6D2 | 
[V:2] A2G2E4 | 
[V:3] z8 | 
[V:4] z8 | 
[V:1] =B,4D4- | 
[V:2] G6F2 | 
[V:3] z8 | 
[V:4] z8 | 
[V:1] D2C2A,4 | 
[V:2] D2E2FEF2 | 
[V:3] z8 | 
[V:4] z8 | 
[V:1] G,4C4- | 
[V:2] G4E4 | 
[V:3] z8 | 
[V:4] z8 | 
[V:1] C2=B,2B,2A,2 | 
[V:2] D8 | 
[V:3] z8 | 
[V:4] z8 | 
[V:1] C8 | 
[V:2] C8- | 
[V:3] z8 | 
[V:4] z8 | 
[V:1] z8 | 
[V:2] C8 | 
[V:3] z8 | 
[V:4] z8 | 
[V:1] G8- | 
[V:2] z8 | 
[V:3] z8 | 
[V:4] z8 | 
[V:1] (3:2:2G4E8 | 
[V:2] z8 | 
[V:3] z8 | 
[V:4] z8 | 
[V:1] (3E4D6C2 | 
[V:2] (3:2:2G8G4- | 
[V:3] z8 | 
[V:4] z8 | 
[V:1] (3:2:2=B,4A,8 | 
[V:2] (3:2:2G4^F8 | 
[V:3] z8 | 
[V:4] z8 | 
[V:1] (3G,4=B,4C4 | 
[V:2] (3G6F2E4 | 
[V:3] z8 | 
[V:4] z8 | 
[V:1] (3:2:2D8E4 | 
[V:2] (3:2:2D4G8 | 
[V:3] z8 | 
[V:4] z8 | 
[V:1] (3F4G6F2 | 
[V:2] (3A4G4=B4 | 
[V:3] z8 | 
[V:4] z8 | 
[V:1] (3E4D4F4 | 
[V:2] (3:2:2c4d8 | 
[V:3] z8 | 
[V:4] z8 | 
[V:1] (3:2:4G4A4=B2A2 | 
[V:2] (3e4c4d4- | 
[V:3] z8 | 
[V:4] z8 | 
[V:1] (3:2:4G2F2E4z4 | 
[V:2] (3d4c4A4- | 
[V:3] z8 | 
[V:4] z8 | 
[V:1] (3C4D4E4- | 
[V:2] (3A4=B4G4 | 
[V:3] z8 | 
[V:4] z8 | 
[V:1] (3:2:2E4A8 | 
[V:2] (3A6G2F4 | 
[V:3] z8 | 
[V:4] z8 | 
[V:1] (3G4F6E2 | 
[V:2] (3E4D4G4- | 
[V:3] z8 | 
[V:4] z8 | 
[V:1] (3:2:2E8D4 | 
[V:2] (3:2:2G4F8 | 
[V:3] z8 | 
[V:4] z8 | 
[V:1] E8 | 
[V:2] E4z4 | 
[V:3] z8 | 
[V:4] z8 | 
[V:1] z8 | 
[V:2] C6D2 | 
[V:3] z8 | 
[V:4] z8 | 
[V:1] C6D2 | 
[V:2] E4F4 | 
[V:3] z8 | 
[V:4] z8 | 
[V:1] E4F4 | 
[V:2] G4A4 | 
[V:3] z8 | 
[V:4] z8 | 
[V:1] G4A4 | 
[V:2] G4c4- | 
[V:3] z8 | 
[V:4] z8 | 
[V:1] G4c4- | 
[V:2] c2d2e4 | 
[V:3] z8 | 
[V:4] z8 | 
[V:1] c2=B2A2F2 | 
[V:2] c4d4 | 
[V:3] z8 | 
[V:4] z8 | 
[V:1] G2F2E4 | 
[V:2] =B2d2c2=Bc | 
[V:3] z8 | 
[V:4] z8 | 
[V:1] D4G4- | 
[V:2] d4G4 | 
[V:3] z8 | 
[V:4] z8 | 
[V:1] G2^F2F2E2 | 
[V:2] A8 | 
[V:3] z8 | 
[V:4] z8 | 
[V:1] G8- | 
[V:2] G8 | 
[V:3] z8 | 
[V:4] G,,8- | 
[V:1] G8 | 
[V:2] z8 | 
[V:3] z8 | 
[V:4] G,,8 | 
[V:1] z8 | 
[V:2] d8 | 
[V:3] G8- | 
[V:4] G,,8 | 
[V:1] G8 | 
[V:2] c8 | 
[V:3] G8 | 
[V:4] C,8- | 
[V:1] G4E4- | 
[V:2] c6=B2 | 
[V:3] G8 | 
[V:4] C,8- | 
[V:1] E4E4 | 
[V:2] A2G2G4- | 
[V:3] c8- | 
[V:4] C,8- | 
[V:1] E4E4 | 
[V:2] G4E4 | 
[V:3] c8 | 
[V:4] C,8 | 
[V:1] D8 | 
[V:2] F6D2 | 
[V:3] A8 | 
[V:4] D,8 | 
[V:1] D4G4 | 
[V:2] D8 | 
[V:3] G8 | 
[V:4] G,,8 | 
[V:1] F4F4 | 
[V:2] z4d4- | 
[V:3] A8 | 
[V:4] D,4F,4 | 
[V:1] G4E4 | 
[V:2] d2c2c4- | 
[V:3] G8 | 
[V:4] E,4C,4 | 
[V:1] F4D4 | 
[V:2] c4=B4 | 
[V:3] F8 | 
[V:4] D,8 | 
[V:1] E8 | 
[V:2] c4c4 | 
[V:3] G8 | 
[V:4] C,8 | 
[V:1] A,4A4- | 
[V:2] c4c4 | 
[V:3] A8- | 
[V:4] F,4F,4- | 
[V:1] A4F4 | 
[V:2] A4d4- | 
[V:3] A8 | 
[V:4] F,4D,4 | 
[V:1] G4E4 | 
[V:2] d2^c4=B2 | 
[V:3] G6F2 | 
[V:4] E,8 | 
[V:1] F6G2 | 
[V:2] d4z4 | 
[V:3] A8- | 
[V:4] D,8- | 
[V:1] A8 | 
[V:2] d8 | 
[V:3] A8 | 
[V:4] D,8 | 
[V:1] D8 | 
[V:2] =B8 | 
[V:3] z8 | 
[V:4] G,8 | 
[V:1] z8 | 
[V:2] c4c4 | 
[V:3] z8 | 
[V:4] A,8 | 
[V:1] z8 | 
[V:2] d4=B4 | 
[V:3] z8 | 
[V:4] G,8 | 
[V:1] z8 | 
[V:2] A6G2 | 
[V:3] z8 | 
[V:4] ^F,8 | 
[V:1] z8 | 
[V:2] G8 | 
[V:3] z8 | 
[V:4] G,4E,4 | 
[V:1] z8 | 
[V:2] z4F4 | 
[V:3] z8 | 
[V:4] D,8 | 
[V:1] z8 | 
[V:2] G2E4C2 | 
[V:3] z8 | 
[V:4] C,8 | 
[V:1] z8 | 
[V:2] D4C4 | 
[V:3] z8 | 
[V:4] B,,4C,4- | 
[V:1] z8 | 
[V:2] c4c4 | 
[V:3] z8 | 
[V:4] C,4A,,4 | 
[V:1] z8 | 
[V:2] =B4e4 | 
[V:3] z8 | 
[V:4] G,,4C,4 | 
[V:1] z8 | 
[V:2] d4c4- | 
[V:3] z8 | 
[V:4] B,,4C,4 | 
[V:1] z8 | 
[V:2] c2=B2=B2A2 | 
[V:3] z8 | 
[V:4] D,8 | 
[V:1] z8 | 
[V:2] c4z4 | 
[V:3] G8 | 
[V:4] C,4B,,4 | 
[V:1] z8 | 
[V:2] c8 | 
[V:3] F8 | 
[V:4] A,,8 | 
[V:1] z8 | 
[V:2] =B8 | 
[V:3] G8 | 
[V:4] G,,8 | 
[V:1] z8 | 
[V:2] A4d4- | 
[V:3] A8 | 
[V:4] D,8- | 
[V:1] z8 | 
[V:2] d4d4- | 
[V:3] A8 | 
[V:4] D,8 | 
[V:1] z8 | 
[V:2] d2c2=B2A2 | 
[V:3] d8- | 
[V:4] D,8 | 
[V:1] F8 | 
[V:2] A8- | 
[V:3] d4c4- | 
[V:4] F,8- | 
[V:1] F8 | 
[V:2] A8 | 
[V:3] c2=B2c4 | 
[V:4] F,8 | 
[V:1] F8 | 
[V:2] A8 | 
[V:3] d8 | 
[V:4] F,8 | 
[V:1] E8 | 
[V:2] G8 | 
[V:3] c8 | 
[V:4] C,8 | 
[V:1] F8 | 
[V:2] z8 | 
[V:3] A8 | 
[V:4] z4D,4- | 
[V:1] D4E4 | 
[V:2] z8 | 
[V:3] =B4c4 | 
[V:4] D,4C,4 | 
[V:1] (3:2:2F8E4 | 
[V:2] z8 | 
[V:3] A8 | 
[V:4] D,4A,,4- | 
[V:1] C4C4 | 
[V:2] z8 | 
[V:3] A8 | 
[V:4] A,,4C,4 | 
[V:1] D4=B,4 | 
[V:2] z8 | 
[V:3] G8 | 
[V:4] B,,4G,,4 | 
[V:1] C4A,4 | 
[V:2] z8 | 
[V:3] F8 | 
[V:4] A,,8 | 
[V:1] =B,4C2D2- | 
[V:2] z8 | 
[V:3] G4G4- | 
[V:4] G,,8 | 
[V:1] D2C2A,2=B,2 | 
[V:2] z8 | 
[V:3] G4F4 | 
[V:4] D,8 | 
[V:1] C4z4 | 
[V:2] z8 | 
[V:3] G8- | 
[V:4] C,8- | 
[V:1] E6F2 | 
[V:2] G4c4- | 
[V:3] G8 | 
[V:4] C,8 | 
[V:1] G4A4 | 
[V:2] c2=B2A4 | 
[V:3] z8 | 
[V:4] E,4F,4 | 
[V:1] D2E2F4- | 
[V:2] G4d4 | 
[V:3] z8 | 
[V:4] G,4F,2D,2- | 
[V:1] F2E2G2F2 | 
[V:2] =B2c4A2 | 
[V:3] z8 | 
[V:4] D,2E,2C,2D,2- | 
[V:1] D4C3=B, | 
[V:2] =B2G4^F2 | 
[V:3] z8 | 
[V:4] D,C,B,,2A,,4 | 
[V:1] D4z4 | 
[V:2] G4A4 | 
[V:3] z8 | 
[V:4] G,,2B,,2A,,2C,2 | 
[V:1] z8 | 
[V:2] D4d2c2 | 
[V:3] z8 | 
[V:4] B,,2D,4_E,2 | 
[V:1] z8 | 
[V:2] d2G2A2B2 | 
[V:3] z8 | 
[V:4] D,2B,,2C,2D,2 | 
[V:1] z8 | 
[V:2] cBAG^F3E | 
[V:3] z8 | 
[V:4] G,,2B,,2A,,4 | 
[V:1] D4G4- | 
[V:2] G4z4 | 
[V:3] G8 | 
[V:4] G,,8 | 
[V:1] G2F2E2D2 | 
[V:2] d4c4 | 
[V:3] G4A4- | 
[V:4] z8 | 
[V:1] E4F2D2 | 
[V:2] A8 | 
[V:3] A4F4 | 
[V:4] z8 | 
[V:1] E2^C4=B,2 | 
[V:2] G8 | 
[V:3] E8 | 
[V:4] z8 | 
[V:1] D8 | 
[V:2] A8 | 
[V:3] D8 | 
[V:4] z8 | 
[V:1] A4A4 | 
[V:2] D8 | 
[V:3] F8- | 
[V:4] z8 | 
[V:1] A8 | 
[V:2] d6c2 | 
[V:3] F8 | 
[V:4] D,8 | 
[V:1] G8 | 
[V:2] =B8 | 
[V:3] G8 | 
[V:4] E,8 | 
[V:1] F4A4 | 
[V:2] A2=B2c4- | 
[V:3] A8 | 
[V:4] F,8 | 
[V:1] z4D4 | 
[V:2] c2=B4A2 | 
[V:3] G8 | 
[V:4] G,8 | 
[V:1] E6F2 | 
[V:2] c8 | 
[V:3] G8 | 
[V:4] C,8- | 
[V:1] G8 | 
[V:2] z4C4 | 
[V:3] G4G4- | 
[V:4] C,8- | 
[V:1] C8 | 
[V:2] E4F4 | 
[V:3] G4F4 | 
[V:4] C,8- | 
[V:1] E4G4 | 
[V:2] G8 | 
[V:3] E8 | 
[V:4] C,8 | 
[V:1] F4D4- | 
[V:2] A4A4 | 
[V:3] D8 | 
[V:4] F,8 | 
[V:1] D4^C4 | 
[V:2] G6F2 | 
[V:3] z8 | 
[V:4] E,8 | 
[V:1] D4z4 | 
[V:2] A8 | 
[V:3] F8 | 
[V:4] D,8- | 
[V:1] A,6=B,2 | 
[V:2] d8 | 
[V:3] F8 | 
[V:4] D,8 | 
[V:1] C2D2E4 | 
[V:2] e4c4 | 
[V:3] G8- | 
[V:4] C,8 | 
[V:1] D4G4- | 
[V:2] =B2d4=B2 | 
[V:3] G8 | 
[V:4] G,,8 | 
[V:1] G2F2E4 | 
[V:2] c3=BG4 | 
[V:3] G8- | 
[V:4] C,8 | 
[V:1] D6C2 | 
[V:2] z4D4 | 
[V:3] G8 | 
[V:4] =B,,8 | 
[V:1] C8- | 
[V:2] E6F2 | 
[V:3] G8- | 
[V:4] C,8- | 
[V:1] C8- | 
[V:2] G8 | 
[V:3] G8- | 
[V:4] C,8- | 
[V:1] C8 ||  
[V:2] C8 ||  
[V:3] G8 ||  
[V:4] C,8 ||  
[V:1]  [K:F] [K:clef=treble][M:3/1]C8C4 | 
[V:2]  [K:F] [K:clef=treble-8][M:3/1]C8C4 | 
[V:3]  [K:F] [K:clef=treble-8][M:3/1]z12 | 
[V:4]  [K:F] [K:clef=bass][M:3/1]z12 | 
[V:1] C4=B,4A,4 | 
[V:2] E8F4 | 
[V:3] z12 | 
[V:4] z12 | 
[V:1] G,8G,4 | 
[V:2] G4G4E4- | 
[V:3] z12 | 
[V:4] z12 | 
[V:1] C4C4D4 | 
[V:2] E2A4G2F4 | 
[V:3] z12 | 
[V:4] z12 | 
[V:1] E4z4A4- | 
[V:2] E4C4z4 | 
[V:3] z12 | 
[V:4] z12 | 
[V:1] A2G4E2F4 | 
[V:2] c8A2=B2 | 
[V:3] z12 | 
[V:4] z12 | 
[V:1] E4D2E2F2G2- | 
[V:2] c4=B2A4G2 | 
[V:3] z12 | 
[V:4] z12 | 
[V:1] G2F2E2DC=B,4 | 
[V:2] E2F2G6E2 | 
[V:3] z12 | 
[V:4] z12 | 
[V:1] A,2=B,2G,2C4B,2 | 
[V:2] F2G2C2E2D4 | 
[V:3] z12 | 
[V:4] z12 | 
[V:1] C8z2C2- | 
[V:2] C8z4 | 
[V:3] z12 | 
[V:4] z12 | 
[V:1] C2C2E4E2G2- | 
[V:2] C4C2E4E2 | 
[V:3] z12 | 
[V:4] z12 | 
[V:1] G2G2D4D2F2- | 
[V:2] G4G2D4D2 | 
[V:3] z12 | 
[V:4] z12 | 
[V:1] FEC4F2G3F | 
[V:2] F4A4G2c2- | 
[V:3] z12 | 
[V:4] z12 | 
[V:1] E2D4G2E2^F2 | 
[V:2] c2d2=B2G2A4 | 
[V:3] z12 | 
[V:4] z12 | 
[V:1] G4z4G4 | 
[V:2] G8z4 | 
[V:3] G12 | 
[V:4] z12 | 
[V:1] E4E4F4 | 
[V:2] A4A4A4 | 
[V:3] c12- | 
[V:4] z12 | 
[V:1] G4G4E4 | 
[V:2] G4G2G4G2 | 
[V:3] c12 | 
[V:4] C,12 | 
[V:1] E8[C4A4] | 
[V:2] A4E4F4 | 
[V:3] c12 | 
[V:4] A,,12 | 
[V:1] D8D4 | 
[V:2] G4G4G2F2 | 
[V:3] =B12- | 
[V:4] G,,12- | 
[V:1] D6G4F2 | 
[V:2] D8G4 | 
[V:3] B12 | 
[V:4] G,,12 | 
[V:1] D4z4G4 | 
[V:2] =B8=B2c2 | 
[V:3] z12 | 
[V:4] G,6F,2G,2E,2 | 
[V:1] A4F8 | 
[V:2] d8d4 | 
[V:3] A12 | 
[V:4] D,8D,4 | 
[V:1] G8E4 | 
[V:2] =B2e4d2^c3=B | 
[V:3] G12 | 
[V:4] E,4C,2D,2E,4 | 
[V:1] ^F6G2F2E2 | 
[V:2] d12 | 
[V:3] A12 | 
[V:4] D,12 | 
[V:1] G2z2D6E2 | 
[V:2] z4z4G4 | 
[V:3] =B12 | 
[V:4] G,,12 | 
[V:1] F4F2G2A4 | 
[V:2] F4F4F4 | 
[V:3] A12 | 
[V:4] D,12 | 
[V:1] D4A4=B2G2 | 
[V:2] G4D4d4 | 
[V:3] G4F4G4- | 
[V:4] z12 | 
[V:1] G6^F4E2 | 
[V:2] =B4c6=B2 | 
[V:3] G4A8 | 
[V:4] z12 | 
[V:1] G4z2G4F2 | 
[V:2] d8=B4 | 
[V:3] G12 | 
[V:4] G,,8G,,4 | 
[V:1] E2C2D4C4 | 
[V:2] G4z4G4 | 
[V:3] G12 | 
[V:4] C,4B,,4C,4 | 
[V:1] z4F8 | 
[V:2] G4A4=B4 | 
[V:3] z12 | 
[V:4] E,4D,8 | 
[V:1] E4D6C2 | 
[V:2] c4A6G2 | 
[V:3] z12 | 
[V:4] C,4F,8 | 
[V:1] C4D4=B,3A, | 
[V:2] G4A2F4E2 | 
[V:3] z12 | 
[V:4] E,4D,8 | 
[V:1] C2z2G,2A,2=B,2C2 | 
[V:2] G4E4z4 | 
[V:3] z12 | 
[V:4] C,4z4G,,2A,,2 | 
[V:1] D2E2z2E2A2G2 | 
[V:2] G2A2=B2c2d2e2- | 
[V:3] z12 | 
[V:4] B,,2C,2D,2E,2F,2E,2 | 
[V:1] E2F3EE2D3C | 
[V:2] e2c3=B=B4A2 | 
[V:3] z12 | 
[V:4] A,3G,A,2G,2F,4 | 
[V:1] E12- | 
[V:2] =B4z4z4 | 
[V:3] z12 | 
[V:4] E,6F,2G,4 | 
[V:1] E12 | 
[V:2] G4G4E4 | 
[V:3] z12 | 
[V:4] C,4z4z4 | 
[V:1] z12 | 
[V:2] C8C4 | 
[V:3] z12 | 
[V:4] G,4G,4E,4 | 
[V:1] G4G4E4 | 
[V:2] E6F2G4 | 
[V:3] z12 | 
[V:4] C,8C,4 | 
[V:1] C4z2F4E2 | 
[V:2] A4G2A2=B2c2- | 
[V:3] z12 | 
[V:4] F,4E,2D,4C,2- | 
[V:1] G2F2D4C3=B, | 
[V:2] c2A2G2B2A2F2 | 
[V:3] z12 | 
[V:4] C,2D,2B,,2G,,2A,,4 | 
[V:1] D4G,2C2D2=B,2 | 
[V:2] G2D2E2G4F2 | 
[V:3] z12 | 
[V:4] G,,2B,,2C,2_E,2D,4 | 
[V:1] C4z4D4 | 
[V:2] G4z4=B4 | 
[V:3] z12 | 
[V:4] C,8G,4 | 
[V:1] E4F6E2 | 
[V:2] =B4c6=B2 | 
[V:3] z12 | 
[V:4] G,4A,8 | 
[V:1] E4F2D4C2 | 
[V:2] =B4A6G2 | 
[V:3] z12 | 
[V:4] G,4F,8 | 
[V:1] E8A,2=B,2 | 
[V:2] =B4c4d4 | 
[V:3] z12 | 
[V:4] E,8D,4 | 
[V:1] C4D6C2 | 
[V:2] G4A6G2 | 
[V:3] z12 | 
[V:4] E,4F,6E,2 | 
[V:1] E6C2C4 | 
[V:2] c2=B2G4A2G2- | 
[V:3] z12 | 
[V:4] C,12- | 
[V:1] z4C4F4 | 
[V:2] G2E2F2E2D2z2 | 
[V:3] z12 | 
[V:4] C,4z4z4 | 
[V:1] E4C4z4 | 
[V:2] C4F4E4 | 
[V:3] z12 | 
[V:4] z12 | 
[V:1] E4A4G4 | 
[V:2] C4z4E4 | 
[V:3] z12 | 
[V:4] z12 | 
[V:1] E2F2G6F2 | 
[V:2] A4G4E2F2 | 
[V:3] z12 | 
[V:4] z12 | 
[V:1] E4D4C4 | 
[V:2] G6F2E4 | 
[V:3] z12 | 
[V:4] z12 | 
[V:1] F4E2C2D4 | 
[V:2] D4C4F4 | 
[V:3] z12 | 
[V:4] z12 | 
[V:1] C4=B,2A,4G,2 | 
[V:2] E2C2D3EF2G2 | 
[V:3] z12 | 
[V:4] z12 | 
[V:1] C2=B,2C2D3A,B,2 | 
[V:2] C2E4F2D4 | 
[V:3] z12 | 
[V:4] z12 | 
[V:1] C12 | 
[V:2] C8z4 | 
[V:3] z12 | 
[V:4] z12 | 
[V:1] z4E4G2F2 | 
[V:2] c8c4- | 
[V:3] G8E2F2 | 
[V:4] C,12 | 
[V:1] E4D2D4^C2 | 
[V:2] c4A8 | 
[V:3] G4F2D2E4 | 
[V:4] C,4D,4A,,4 | 
[V:1] D8D4 | 
[V:2] A4A4A4 | 
[V:3] D8D4 | 
[V:4] z4F,8 | 
[V:1] C4D4F4 | 
[V:2] G4A2=B4A2 | 
[V:3] E4F8 | 
[V:4] E,4D,8 | 
[V:1] E4z2E4F2 | 
[V:2] c6=B2G4 | 
[V:3] G4A2G2c4 | 
[V:4] C,8C,4 | 
[V:1] G4A4^F2E2 | 
[V:2] d8d4 | 
[V:3] =B4A8 | 
[V:4] G,,4D,8 | 
[V:1] G4z2E2F2E2- | 
[V:2] =B4c4z2C2 | 
[V:3] G12- | 
[V:4] E,4C,8 | 
[V:1] EDC2=B,2C2D2B,2 | 
[V:2] E4D8 | 
[V:3] G12 | 
[V:4] C,4G,,8 | 
[V:1] C12- | 
[V:2] C4E2F2G4 | 
[V:3] G12- | 
[V:4] C,12- | 
[V:1] C12 |]  
[V:2] C12 |]  
[V:3] G12 |]  
[V:4] C,12 |]  



